epam-assets/icon-sources/18/communication-skype_business.svg

<svg width="18" height="18" viewBox="0 0 18 18" fill="none" xmlns="http://www.w3.org/2000/svg">
<g id="18/communication-skype_business">
<path id="icon" fill-rule="evenodd" clip-rule="evenodd" d="M9.02333 12.5233C6.95444 12.5233 6.02889 11.5044 6.02889 10.7422C6.02889 10.3533 6.31667 10.0733 6.71333 10.0733C7.6 10.0733 7.37444 11.3333 9.02333 11.3333C9.87111 11.3333 10.3456 10.89 10.3456 10.4156C10.3456 10.1356 10.2056 9.82444 9.64556 9.68444L7.80222 9.22556C6.31667 8.85222 6.04444 8.05111 6.04444 7.29667C6.04444 5.72556 7.52222 5.13444 8.90667 5.13444C10.1667 5.13444 11.6911 5.84222 11.6911 6.78333C11.6911 7.18778 11.3333 7.42111 10.9444 7.42111C10.1667 7.42111 10.3222 6.37111 8.79778 6.37111C8.04333 6.37111 7.62333 6.71333 7.62333 7.20333C7.62333 7.69333 8.22222 7.83333 8.73556 7.97333L10.1044 8.27667C11.5978 8.61111 11.9789 9.48222 11.9789 10.2989C11.9789 11.5744 10.9989 12.5233 9.02333 12.5233ZM13.6667 4.33333C15.2767 5.92 15.8833 8.13667 15.5022 10.2056C15.8211 10.7656 16 11.4189 16 12.1111C16 14.2589 14.2589 16 12.1111 16C11.4189 16 10.7656 15.8211 10.2056 15.5022C8.13667 15.8833 5.92 15.2767 4.33333 13.6667C2.72333 12.08 2.11667 9.86333 2.49778 7.79444C2.17889 7.23444 2 6.58111 2 5.88889C2 3.74111 3.74111 2 5.88889 2C6.58111 2 7.23444 2.17889 7.79444 2.49778C9.86333 2.11667 12.08 2.72333 13.6667 4.33333ZM5.88889 3.55556C4.60022 3.55556 3.55556 4.60022 3.55556 5.88889C3.55556 6.50333 3.78889 7.05556 4.17778 7.47556C3.63333 9.21778 4.04556 11.1933 5.42222 12.5778C6.80667 13.9544 8.78222 14.3667 10.5244 13.8222C10.9444 14.2111 11.4967 14.4444 12.1111 14.4444C13.3998 14.4444 14.4444 13.3998 14.4444 12.1111C14.4444 11.4967 14.2111 10.9444 13.8222 10.5244C14.3667 8.78222 13.9544 6.80667 12.5778 5.42222C11.1933 4.04556 9.21778 3.63333 7.47556 4.17778C7.05556 3.78889 6.50333 3.55556 5.88889 3.55556Z" fill="#6C6F80"/>
</g>
</svg>

<svg xmlns="http://www.w3.org/2000/svg" width="18" height="18" fill="none" viewBox="0 0 18 18">
  <path fill="#6C6F80" fill-rule="evenodd" d="M9.023 12.523c-2.069 0-2.994-1.019-2.994-1.78 0-.39.288-.67.684-.67.887 0 .661 1.26 2.31 1.26.848 0 1.323-.443 1.323-.917 0-.28-.14-.592-.7-.732l-1.844-.458c-1.485-.374-1.758-1.175-1.758-1.93 0-1.57 1.478-2.162 2.863-2.162 1.26 0 2.784.708 2.784 1.65 0 .404-.358.637-.747.637-.777 0-.622-1.05-2.146-1.05-.755 0-1.175.342-1.175.832 0 .49.6.63 1.113.77l1.368.304c1.494.334 1.875 1.205 1.875 2.022 0 1.275-.98 2.224-2.956 2.224Zm4.644-8.19a6.554 6.554 0 0 1 1.835 5.873c.32.56.498 1.213.498 1.905a3.889 3.889 0 0 1-5.794 3.391 6.554 6.554 0 0 1-5.873-1.835 6.554 6.554 0 0 1-1.835-5.873 3.889 3.889 0 0 1 5.297-5.297 6.554 6.554 0 0 1 5.872 1.836Zm-7.778-.777a2.333 2.333 0 0 0-1.711 3.92 5.077 5.077 0 0 0 1.244 5.102 5.077 5.077 0 0 0 5.102 1.244 2.333 2.333 0 0 0 3.298-3.298 5.077 5.077 0 0 0-1.244-5.102 5.077 5.077 0 0 0-5.102-1.244 2.316 2.316 0 0 0-1.587-.622Z" clip-rule="evenodd"/>
</svg>
